X:130
M:6/8
L:1/8
Q:3/8=50
K:G Minor
~B>cB A2 G/^F/|G<DB =FD B,/C/|D>^CD B,2A,|G,G^F G2:|
d>^cd [G2B2e2g2] a/b/|dcB cBA|G/^F/G/A/B/c/ d2D||

